teams/dark/108.svg

<svg xmlns="http://www.w3.org/2000/svg" viewBox="0 0 300 300"><title>Los Angeles Angels cap on dark logo</title><path fill="#fff" d="M245.76 259.54h2.83v8.02h-1.65v-6.39h-.04l-2.32 6.39h-1.59l-2.24-6.39h-.04v6.39h-1.65v-8.02h2.84l1.87 5.24h.05Zm-14.66 0h6.5v1.42h-2.42v6.6h-1.65v-6.6h-2.43Zm-65.78 12.78c5.68-4.38 8.79-12.03 6.24-20.81l-1.7-5.82h-39.65l-1.71 5.82c-2.56 8.78.56 16.43 6.26 20.81H65.03c6.42-4.38 12.07-12.03 14.66-20.81l19.5-66.87c2.1-7.19-1.35-14.41-6.82-19.27 7.77-2.39 14.69-7.78 16.85-15.24l10.91-37.44C104.6 107.5 94.46 98.3 94.46 87.62c0-13.95 17.28-25.36 41.32-28.63l9.13-31.31h10.21l9.13 31.3c24.03 3.28 41.29 14.69 41.29 28.64 0 10.68-10.11 19.88-25.63 25.07l10.91 37.44c2.16 7.46 9.06 12.85 16.84 15.24-5.48 4.86-8.91 12.08-6.8 19.27l19.49 66.87c2.54 8.78 8.24 16.43 14.68 20.81Zm-21.3-74.01h12.02l-6.01-20.68Z"/><path fill="#003263" d="M223.3 267.56c-3.33-4.33-5.97-9.4-7.52-14.71l-19.36-66.44c-3.07-10.54 2.61-18.03 3.36-19.22-6.73-3.64-11.65-9.19-13.53-15.75l-11.78-40.43c16.62-4.42 27.94-13.23 27.94-23.4 0-12.85-18.2-23.58-42.31-25.96l-8.51-29.21h-3.09l-8.51 29.21c-24.12 2.36-42.34 13.1-42.34 25.96 0 10.17 11.34 18.98 27.95 23.4l-11.79 40.43c-1.9 6.57-6.81 12.11-13.54 15.75.76 1.19 6.44 8.68 3.36 19.22l-19.35 66.44c-1.55 5.31-4.19 10.37-7.54 14.71h48.27c-3.89-8.6-1.84-14.86-.09-20.76l1.71-5.89h46.8l1.73 5.89c1.71 5.9 3.77 12.16-.12 20.76h48.27Zm-85.67-64.48 12.41-42.5 12.37 42.5z"/><path fill="#862633" d="M150.04 68.8c-1.47 0-2.92.04-4.35.09l4.35-14.92Zm60.42 191.25H184.1c.61-3.98 0-9.26-1.06-12.98l-4-13.64h-58.06l-8.16-11.41-8.76 30.02 11.88 8.02H89.55c1.08-2.23 1.97-4.51 2.66-6.87l18.53-63.34c2.91-9.9 1.3-14.18-.8-20.15 5.58-4.27 9.25-9.82 11.05-16.08l14.06-48.24h.02l2.12-7.35 6.21-21.34c2.15-.12 4.37-.2 6.64-.2 1.91 0 3.78.07 5.61.15.34.01.67.03 1 .05l1.22 4.25c-2.54-.14-5.16-.24-7.83-.24v13.85l-37.22 127.46h74.4l8.54 29.25Zm-60.42-165.5 37.18 127.46-14.83-11.43-22.35-76.76Z"/><path fill="#ba0021" d="m172.39 210.58 14.83 11.43h-74.4l37.22-127.46v39.27l-22.42 76.76Zm-68.33 41.45.002.002-.002.008Zm.002.002 8.758-30.012 8.16 11.41-3.94 13.64c-1.14 3.72-1.74 8.99-1.1 12.98ZM150.04 68.8V53.97l4.35 14.92c-1.43-.05-2.88-.09-4.35-.09m12.828 29.222.002-.002 2.11 7.35c.01 0 .03-.01.03-.01l14.05 48.25c1.8 6.26 5.5 11.81 11.06 16.08-2.11 5.98-3.71 10.25-.8 20.15l18.51 63.34c.69 2.36 1.61 4.64 2.64 6.87l-14.7-8.79-8.54-29.25-37.19-127.46V80.7c2.67 0 5.29.1 7.83.24l-1.22-4.25Z"/><path fill="#c4ced4" d="M137.19 98.03c-13.47-1.61-23.04-5.68-23.04-10.41 0-5.44 12.6-9.97 29.25-10.94 2.15-.12 4.37-.2 6.64-.2 1.91 0 3.78.06 5.61.15.33.01.66.03 1 .05 16.65.96 29.27 5.48 29.27 10.94 0 4.73-9.58 8.8-23.04 10.41h-.01l2.11 7.35s.02 0 .03-.01c17.36-2.6 29.79-9.53 29.79-17.75 0-9.77-17.73-17.81-40.4-18.73-1.43-.05-2.88-.09-4.35-.09s-2.92.04-4.35.09c-22.71.92-40.41 8.96-40.41 18.73 0 8.21 12.42 15.15 29.78 17.75h.02l2.12-7.35Z"/></svg>

<svg width="300" height="300" viewBox="0 0 300 300" fill="none" xmlns="http://www.w3.org/2000/svg">
<path d="M165.32 272.32C171 267.94 174.11 260.29 171.56 251.51L169.86 245.69H130.21L128.5 251.51C125.94 260.29 129.06 267.94 134.76 272.32H65.03C71.45 267.94 77.1 260.29 79.69 251.51L99.19 184.64C101.29 177.45 97.84 170.23 92.37 165.37C100.14 162.98 107.06 157.59 109.22 150.13L120.13 112.69C104.6 107.5 94.46 98.3 94.46 87.62C94.46 73.67 111.74 62.26 135.78 58.99L144.91 27.68H155.12L164.25 58.98C188.28 62.26 205.54 73.67 205.54 87.62C205.54 98.3 195.43 107.5 179.91 112.69L190.82 150.13C192.98 157.59 199.88 162.98 207.66 165.37C202.18 170.23 198.75 177.45 200.86 184.64L220.35 251.51C222.89 260.29 228.59 267.94 235.03 272.32H165.32ZM144.02 198.31H156.04L150.03 177.63L144.02 198.31Z" fill="white"/>
<path d="M223.3 267.56C219.97 263.23 217.33 258.16 215.78 252.85L196.42 186.41C193.35 175.87 199.03 168.38 199.78 167.19C193.05 163.55 188.13 158 186.25 151.44L174.47 111.01C191.09 106.59 202.41 97.78 202.41 87.61C202.41 74.76 184.21 64.03 160.1 61.65L151.59 32.44H148.5L139.99 61.65C115.87 64.01 97.65 74.75 97.65 87.61C97.65 97.78 108.99 106.59 125.6 111.01L113.81 151.44C111.91 158.01 107 163.55 100.27 167.19C101.03 168.38 106.71 175.87 103.63 186.41L84.28 252.85C82.73 258.16 80.09 263.22 76.74 267.56H125.01C121.12 258.96 123.17 252.7 124.92 246.8L126.63 240.91H173.43L175.16 246.8C176.87 252.7 178.93 258.96 175.04 267.56H223.31H223.3ZM137.63 203.08L150.04 160.58L162.41 203.08H137.63Z" fill="#003263"/>
<path d="M150.04 68.8C148.57 68.8 147.12 68.84 145.69 68.89L150.04 53.97V68.8ZM210.46 260.05H184.1C184.71 256.07 184.1 250.79 183.04 247.07L179.04 233.43H120.98L112.82 222.02L104.06 252.04L115.94 260.06H89.55C90.63 257.83 91.52 255.55 92.21 253.19L110.74 189.85C113.65 179.95 112.04 175.67 109.94 169.7C115.52 165.43 119.19 159.88 120.99 153.62L135.05 105.38H135.07L137.19 98.03L143.4 76.69C145.55 76.57 147.77 76.49 150.04 76.49C151.95 76.49 153.82 76.56 155.65 76.64C155.99 76.65 156.32 76.67 156.65 76.69L157.87 80.94C155.33 80.8 152.71 80.7 150.04 80.7V94.55L112.82 222.01H187.22L195.76 251.26L210.46 260.05ZM150.04 94.55L187.22 222.01L172.39 210.58L150.04 133.82V94.55Z" fill="#862633"/>
<path d="M172.39 210.58L187.22 222.01H112.82L150.04 94.55V133.82L127.62 210.58H172.39ZM104.06 252.03L104.062 252.032L104.06 252.04V252.03ZM104.062 252.032L112.82 222.02L120.98 233.43L117.04 247.07C115.9 250.79 115.3 256.06 115.94 260.05L104.062 252.032ZM150.04 68.8V53.97L154.39 68.89C152.96 68.84 151.51 68.8 150.04 68.8ZM162.868 98.022L162.87 98.02L164.98 105.37C164.99 105.37 165.01 105.36 165.01 105.36L179.06 153.61C180.86 159.87 184.56 165.42 190.12 169.69C188.01 175.67 186.41 179.94 189.32 189.84L207.83 253.18C208.52 255.54 209.44 257.82 210.47 260.05L195.77 251.26L187.23 222.01L150.04 94.55V80.7C152.71 80.7 155.33 80.8 157.87 80.94L156.65 76.69L162.868 98.022Z" fill="#BA0021"/>
<path d="M137.19 98.03C123.72 96.42 114.15 92.35 114.15 87.62C114.15 82.18 126.75 77.65 143.4 76.68C145.55 76.56 147.77 76.48 150.04 76.48C151.95 76.48 153.82 76.54 155.65 76.63C155.98 76.64 156.31 76.66 156.65 76.68C173.3 77.64 185.92 82.16 185.92 87.62C185.92 92.35 176.34 96.42 162.88 98.03H162.87L164.98 105.38C164.98 105.38 165 105.38 165.01 105.37C182.37 102.77 194.8 95.84 194.8 87.62C194.8 77.85 177.07 69.81 154.4 68.89C152.97 68.84 151.52 68.8 150.05 68.8C148.58 68.8 147.13 68.84 145.7 68.89C122.99 69.81 105.29 77.85 105.29 87.62C105.29 95.83 117.71 102.77 135.07 105.37H135.09L137.21 98.02L137.19 98.03Z" fill="#C4CED4"/>
</svg>
